flags/language/vo.svg

<svg width="512" height="512" viewBox="0 0 512 512" fill="none" xmlns="http://www.w3.org/2000/svg">
<rect width="512" height="512" fill="var(--flag-palette-purple, #4a1f63)"/>
<rect width="256" height="256" fill="var(--flag-palette-yellow, #ffda44)"/>
<path d="M128 24C100.417 24 73.9647 34.9571 54.4609 54.4609C34.9571 73.9647 24 100.417 24 128C24 155.583 34.9571 182.035 54.4609 201.539C73.9647 221.043 100.417 232 128 232C155.583 232 182.035 221.043 201.539 201.539C221.043 182.035 232 155.583 232 128C232 100.417 221.043 73.9647 201.539 54.4609C182.035 34.9571 155.583 24 128 24ZM103 44C95 52 87 62 81 75L64 68C74 57 88 48 103 44ZM153 44C168 48 182 57 192 68L175 75C169 62 161 52 153 44ZM136 49C143 56 152 66 160 79L136 83V49ZM120 49V83L96 79C104 66 113 56 120 49ZM202 80C210 92 214 106 216 120H188C187 109 185 99 181 89L202 80ZM54 80L75 89C71 99 69 109 68 120H40C42 106 46 92 54 80ZM166 94C169 102 171 111 172 120H136V99L166 94ZM90 94L120 99V120H84C85 111 87 102 90 94ZM40 136H68C69 147 71 157 75 167L54 176C46 164 42 151 40 136ZM84 136H120V157L90 162C87 154 85 145 84 136ZM136 136H172C171 145 169 154 166 162L136 157V136ZM188 136H216C214 151 210 164 202 176L181 167C185 157 187 147 188 136ZM120 173V207C113 201 104 190 96 177L120 173ZM136 173L160 177C152 190 143 201 136 207V173ZM175 181C182 184 188 186 192 189C181.2 199.901 167.765 207.824 153 212C161 204 169 194 175 181ZM81 181C87 194 95 204 103 212C88 208 74 200 64 189L81 181Z" fill="var(--flag-palette-purple, #4a1f63)"/>
</svg>

<svg xmlns="http://www.w3.org/2000/svg" width="512" height="512" fill="none"><path fill="var(--flag-palette-purple, #4a1f63)" d="M0 0h512v512H0z"/><path fill="var(--flag-palette-yellow, #ffda44)" d="M0 0h256v256H0z"/><path fill="var(--flag-palette-purple, #4a1f63)" d="M128 24a104 104 0 1 0 0 208 104 104 0 0 0 0-208m-25 20c-8 8-16 18-22 31l-17-7c10-11 24-20 39-24m50 0c15 4 29 13 39 24l-17 7c-6-13-14-23-22-31m-17 5c7 7 16 17 24 30l-24 4zm-16 0v34l-24-4c8-13 17-23 24-30m82 31c8 12 12 26 14 40h-28c-1-11-3-21-7-31zM54 80l21 9c-4 10-6 20-7 31H40c2-14 6-28 14-40m112 14c3 8 5 17 6 26h-36V99zm-76 0 30 5v21H84c1-9 3-18 6-26m-50 42h28c1 11 3 21 7 31l-21 9c-8-12-12-25-14-40m44 0h36v21l-30 5c-3-8-5-17-6-26m52 0h36c-1 9-3 18-6 26l-30-5zm52 0h28c-2 15-6 28-14 40l-21-9c4-10 6-20 7-31m-68 37v34c-7-6-16-17-24-30zm16 0 24 4c-8 13-17 24-24 30zm39 8c7 3 13 5 17 8a89 89 0 0 1-39 23c8-8 16-18 22-31m-94 0c6 13 14 23 22 31-15-4-29-12-39-23z"/></svg>
